X: 177
T: The Girl With the Blue Dress on
B: canberra pickers and fiddlers
B: old time tunes update
B: tunes
M:4/4
L:1/4
Q: 1/4=100
K:G
V:1 
B/2c/2|"G"dB/2d/2 "D7/a"cA/2c/2|"G/b"BG G/2F/2G/2B/2|"D7"AF F/2E/2F/2G/2|\
"G"AG "D7"GB/2c/2|
"G"dB/2d/2 "D7/a"cA/2c/2|"G/b"BG G/2F/2G/2B/2|"D7"AF F/2E/2F/2G/2|"G"AG G:|
d|"G"GB/2d/2 g3/2f/2|"C"fe e2|"D7"DF/2A/2 f3/2e/2|"G"ed "D"d2|\
"G""Em"GB/2d/2 g3/2f/2|"C""Am"fe eg|"D7"fa ef|"G"g3:|
% abcbook-tune_id 67a7d9ecb5fb868f34578d93
% abcbook-tune_composer_id 
% abcbook-link-0 https://www.youtube.com/watch?v=n0IKwdfiL24
% abcbook-link-title-0 Pretty Little Girl with the Blue Dress On - Rhiannon Giddens
% abcbook-link-start-at-0 13
% abcbook-link-end-at-0 153
% abcbook-boost 0
% abcbook-difficulty 0
% abcbook-tags old time tunes
% abcbook-tablature 
% abcbook-transpose 
% abcbook-tuning GDAD
% abcbook-lastupdated 1739278533840
% abcbook-src-url 
% abcbook-soundfonts 
% abcbook-repeats 1
% Nottingham Music Database
% Titles One title
% Transcriptions Only 1 transcription
% Movement Has some stepwise movement
% Mode major
% Key G
% Time_signature 4/4
% Text Has source text
% Has_accompaniment_chords Has chords

